Yaru++/mimetypes/16/package.svg

<?xml version="1.0" encoding="UTF-8" standalone="no"?>
<svg
   xmlns:dc="http://purl.org/dc/elements/1.1/"
   xmlns:cc="http://creativecommons.org/ns#"
   xmlns:rdf="http://www.w3.org/1999/02/22-rdf-syntax-ns#"
   xmlns:svg="http://www.w3.org/2000/svg"
   xmlns="http://www.w3.org/2000/svg"
   xmlns:xlink="http://www.w3.org/1999/xlink"
   xmlns:sodipodi="http://sodipodi.sourceforge.net/DTD/sodipodi-0.dtd"
   xmlns:inkscape="http://www.inkscape.org/namespaces/inkscape"
   height="16"
   viewBox="0 0 4.233125 4.233125"
   width="16"
   version="1.1"
   id="svg42"
   sodipodi:docname="package.svg"
   inkscape:version="0.92.5 (2060ec1f9f, 2020-04-08)">
  <metadata
     id="metadata48">
    <rdf:RDF>
      <cc:Work
         rdf:about="">
        <dc:format>image/svg+xml</dc:format>
        <dc:type
           rdf:resource="http://purl.org/dc/dcmitype/StillImage" />
      </cc:Work>
    </rdf:RDF>
  </metadata>
  <defs
     id="defs46">
    <linearGradient
       inkscape:collect="always"
       xlink:href="#linearGradient927"
       id="linearGradient993"
       x1="328"
       y1="237"
       x2="328"
       y2="251"
       gradientUnits="userSpaceOnUse" />
    <linearGradient
       inkscape:collect="always"
       id="linearGradient927">
      <stop
         style="stop-color:#ffffff;stop-opacity:1;"
         offset="0"
         id="stop923" />
      <stop
         id="stop933"
         offset="0.125"
         style="stop-color:#ffffff;stop-opacity:0.09803922" />
      <stop
         id="stop931"
         offset="0.92500001"
         style="stop-color:#ffffff;stop-opacity:0.09803922" />
      <stop
         style="stop-color:#ffffff;stop-opacity:0.49803922"
         offset="1"
         id="stop925" />
    </linearGradient>
    <clipPath
       clipPathUnits="userSpaceOnUse"
       id="clipPath983">
      <path
         sodipodi:nodetypes="scccssscsss"
         inkscape:connector-curvature="0"
         id="path985"
         d="m 325.09646,237 c -2.80769,0 -3.10979,0.28839 -3.09603,3.10176 V 244 v 3.89824 c -0.0138,2.81337 0.28834,3.10176 3.09603,3.10176 h 5.8075 C 333.71166,251 334,250.71165 334,247.89824 V 244 240.10176 C 334,237.28836 333.71165,237 330.90396,237 Z"
         style="color:#000000;display:inline;overflow:visible;visibility:visible;opacity:1;fill:#46a926;fill-opacity:1;fill-rule:nonzero;stroke:none;stroke-width:2;stroke-miterlimit:4;stroke-dasharray:none;stroke-opacity:1;marker:none;enable-background:accumulate" />
    </clipPath>
    <linearGradient
       inkscape:collect="always"
       xlink:href="#linearGradient4235"
       id="linearGradient1070"
       gradientUnits="userSpaceOnUse"
       gradientTransform="matrix(0.02480347,0,0,0.03307129,-4.497563,-2.1165622)"
       x1="256"
       y1="24.000002"
       x2="256"
       y2="664" />
    <linearGradient
       inkscape:collect="always"
       id="linearGradient4235">
      <stop
         style="stop-color:#f1e2a7;stop-opacity:1;"
         offset="0"
         id="stop4237" />
      <stop
         style="stop-color:#f9f1d2;stop-opacity:1"
         offset="1"
         id="stop4239" />
    </linearGradient>
    <linearGradient
       inkscape:collect="always"
       xlink:href="#linearGradient4338"
       id="linearGradient920"
       gradientUnits="userSpaceOnUse"
       gradientTransform="matrix(0,-0.00953618,-0.00953591,0,5.1762705,4.4736435)"
       x1="459.03448"
       y1="419.23337"
       x2="35.310345"
       y2="207.36522" />
    <linearGradient
       inkscape:collect="always"
       id="linearGradient4338">
      <stop
         style="stop-color:#ea9d60;stop-opacity:1"
         offset="0"
         id="stop4340" />
      <stop
         style="stop-color:#efbe94;stop-opacity:1"
         offset="1"
         id="stop4342" />
    </linearGradient>
  </defs>
  <sodipodi:namedview
     pagecolor="#ffffff"
     bordercolor="#666666"
     borderopacity="1"
     objecttolerance="10"
     gridtolerance="10"
     guidetolerance="10"
     inkscape:pageopacity="0"
     inkscape:pageshadow="2"
     inkscape:window-width="1920"
     inkscape:window-height="1016"
     id="namedview44"
     showgrid="false"
     inkscape:zoom="14.75"
     inkscape:cx="8"
     inkscape:cy="8"
     inkscape:window-x="0"
     inkscape:window-y="27"
     inkscape:window-maximized="1"
     inkscape:current-layer="svg42" />
  <linearGradient
     id="a"
     gradientUnits="userSpaceOnUse"
     x1="328"
     x2="328"
     y1="237"
     y2="251">
    <stop
       offset="0"
       stop-color="#fff"
       id="stop2" />
    <stop
       offset=".125"
       stop-color="#fff"
       stop-opacity=".098039"
       id="stop4" />
    <stop
       offset=".92500001"
       stop-color="#fff"
       stop-opacity=".098039"
       id="stop6" />
    <stop
       offset="1"
       stop-color="#fff"
       stop-opacity=".498039"
       id="stop8" />
  </linearGradient>
  <clipPath
     id="b">
    <path
       d="m325.09646 237c-2.80769 0-3.10979.28839-3.09603 3.10176v3.89824 3.89824c-.0138 2.81337.28834 3.10176 3.09603 3.10176h5.8075c2.8077 0 3.09604-.28835 3.09604-3.10176v-3.89824-3.89824c0-2.8134-.28835-3.10176-3.09604-3.10176z"
       id="path11" />
  </clipPath>
  <linearGradient
     id="c"
     gradientTransform="matrix(.02480347 0 0 .03307129 -4.497562 -2.116563)"
     gradientUnits="userSpaceOnUse"
     x1="256"
     x2="256"
     y1="24.000002"
     y2="664">
    <stop
       offset="0"
       stop-color="#f1e2a7"
       id="stop14" />
    <stop
       offset="1"
       stop-color="#f9f1d2"
       id="stop16" />
  </linearGradient>
  <linearGradient
     id="d"
     gradientTransform="matrix(0 -.00953618 -.00953591 0 5.176271 4.473642)"
     gradientUnits="userSpaceOnUse"
     x1="459.03448"
     x2="35.310345"
     y1="419.23337"
     y2="207.36522">
    <stop
       offset="0"
       stop-color="#ea9d60"
       id="stop19" />
    <stop
       offset="1"
       stop-color="#efbe94"
       id="stop21" />
  </linearGradient>
  <path
     style="color:#000000;display:inline;overflow:visible;visibility:visible;fill:url(#linearGradient920);fill-opacity:1;fill-rule:nonzero;stroke:none;stroke-width:0.26457033;marker:none;enable-background:accumulate"
     d="m 2.8849672,0.13228551 c 0.187972,0 0.3369145,0.004074 0.463514,0.0253194 0.1265996,0.021245 0.2372429,0.0627772 0.3193443,0.14468821 0.082102,0.0819083 0.1236232,0.19210455 0.1446883,0.31882835 0.02106,0.1267213 0.024684,0.2760845 0.023758,0.46454843 v 1.0308929 1.0314115 c 7.937e-4,0.188165 -0.00273,0.3374488 -0.023758,0.4640299 -0.02106,0.1267238 -0.062584,0.23692 -0.1446883,0.3188284 -0.082104,0.081911 -0.1927421,0.1234352 -0.3193443,0.1446882 -0.1266022,0.021245 -0.275542,0.025319 -0.463514,0.025319 H 1.3481841 c -0.1879719,0 -0.3366287,-0.00405 -0.46299801,-0.025319 C 0.75881929,4.0542493 0.64817339,4.0127832 0.56635769,3.9308326 0.48454989,3.8488819 0.44341449,3.7385402 0.42218799,3.6120042 0.40096949,3.4854708 0.39686859,3.3363192 0.39686859,3.1479743 V 2.1165628 1.0851513 c 0,-0.18834493 0.0041,-0.33749643 0.025319,-0.46402983 0.021219,-0.126536 0.062359,-0.23687772 0.1441697,-0.31882837 0.081816,-0.0819507 0.1924616,-0.12342205 0.3188284,-0.14468821 C 1.011555,0.13633339 1.1602118,0.13228549 1.3481837,0.13228549 Z"
     id="path918"
     inkscape:connector-curvature="0" />
  <path
     style="color:#000000;display:inline;overflow:visible;visibility:visible;opacity:0.6;fill:url(#linearGradient1070);fill-opacity:1;fill-rule:nonzero;stroke:none;stroke-width:4.23312521;stroke-linecap:butt;stroke-linejoin:miter;stroke-miterlimit:4;stroke-dasharray:none;stroke-dashoffset:0;stroke-opacity:1;marker:none;enable-background:accumulate"
     d="M 1.8521244,0.26457066 H 2.381265 V 3.968555 H 1.8521244 Z"
     id="path1068"
     inkscape:connector-curvature="0"
     sodipodi:nodetypes="ccccc" />
  <path
     inkscape:connector-curvature="0"
     style="color:#000000;display:inline;overflow:visible;visibility:visible;opacity:1;fill:#e2965b;fill-opacity:1;fill-rule:nonzero;stroke:none;stroke-width:4.23312521;stroke-linecap:butt;stroke-linejoin:miter;stroke-miterlimit:4;stroke-dasharray:none;stroke-dashoffset:0;stroke-opacity:1;marker:none;enable-background:accumulate"
     d="M 2.381265,2.6457034 V 2.7779886 H 3.7041166 V 2.6457034 Z m 0,0.5291406 V 3.3071292 H 3.174976 V 3.174844 Z"
     id="path1059" />
  <path
     style="color:#000000;display:inline;overflow:visible;visibility:visible;opacity:1;fill:#f9f9f9;fill-opacity:1;fill-rule:nonzero;stroke:none;stroke-width:4.23312473;stroke-linecap:butt;stroke-linejoin:miter;stroke-miterlimit:4;stroke-dasharray:none;stroke-dashoffset:0;stroke-opacity:1;marker:none;enable-background:accumulate"
     d="M 0.52927279,2.6457034 H 1.5875541 v 0.793711 H 0.52927279 Z"
     id="path1061"
     inkscape:connector-curvature="0"
     sodipodi:nodetypes="ccccc" />
  <path
     sodipodi:nodetypes="ccccccccccccccc"
     inkscape:connector-curvature="0"
     id="path1063"
     d="M 0.66155799,2.9102737 V 3.174844 h 0.1322852 V 2.9102737 Z m 0.2645703,0 V 3.174844 H 1.0584135 V 2.9102737 Z m 0.26457031,0 V 3.174844 H 1.4552689 V 2.9102737 Z"
     style="color:#000000;display:inline;overflow:visible;visibility:visible;opacity:1;fill:#5d5d5d;fill-opacity:1;fill-rule:nonzero;stroke:none;stroke-width:4.23312521;stroke-linecap:butt;stroke-linejoin:miter;stroke-miterlimit:4;stroke-dasharray:none;stroke-dashoffset:0;stroke-opacity:1;marker:none;enable-background:accumulate" />
  <path
     style="color:#000000;display:inline;overflow:visible;visibility:visible;opacity:0.07999998;fill:#ffffff;fill-opacity:1;fill-rule:nonzero;stroke:none;stroke-width:0.26457033;marker:none;enable-background:accumulate"
     d="M 2.1166947,0.26457066 V 3.968555 h 0.7683916 c 0.7428341,0 0.8190303,-0.076236 0.8190303,-0.8205807 V 2.1165628 1.0851513 c 0,-0.74434206 -0.076199,-0.82058064 -0.8190303,-0.82058064 z"
     id="path1009"
     inkscape:connector-curvature="0" />
  <path
     id="path1087"
     d="m 1.3483032,0.13228551 c -0.1879719,0 -0.3369145,0.004074 -0.46351401,0.0253194 -0.1265995,0.021245 -0.2372428,0.0627772 -0.3193443,0.14468821 -0.0821015,0.0819083 -0.1236231,0.19210455 -0.1446882,0.31882835 -0.0210598,0.1267213 -0.0246844,0.2760845 -0.0237584,0.46454843 v 1.0308929 1.0314115 c -7.937e-4,0.188165 0.00272,0.3374488 0.023758,0.4640299 0.02106,0.1267238 0.062584,0.23692 0.1446882,0.3188284 0.082104,0.081911 0.1927421,0.1234352 0.3193443,0.1446882 0.12660221,0.021245 0.27554211,0.025319 0.46351401,0.025319 h 1.5367831 c 0.1879719,0 0.3366287,-0.00405 0.4629981,-0.025319 C 3.4744507,4.0542488 3.5850966,4.0127828 3.6669124,3.9308326 3.7487204,3.8488816 3.7898555,3.7385402 3.811082,3.6120042 3.832301,3.4854708 3.836401,3.3363192 3.836401,3.1479743 V 2.1165628 1.0851513 c 0,-0.18834493 -0.0041,-0.33749643 -0.025319,-0.46402983 C 3.7898639,0.49458547 3.7487232,0.38424375 3.6669128,0.3022931 3.585097,0.22034244 3.4744511,0.17887105 3.3480844,0.15760489 3.221715,0.13633343 3.0730582,0.13228551 2.8850863,0.13228551 Z"
     style="color:#000000;display:inline;overflow:visible;visibility:visible;opacity:0.3;fill:none;fill-opacity:1;fill-rule:nonzero;stroke:#000000;stroke-width:0.26457033;stroke-opacity:1;marker:none;enable-background:accumulate"
     inkscape:connector-curvature="0" />
  <path
     transform="matrix(0.26457031,0,0,0.26457031,-84.662367,-62.438594)"
     style="color:#000000;display:inline;overflow:visible;visibility:visible;opacity:0.4;fill:none;fill-opacity:1;fill-rule:nonzero;stroke:url(#linearGradient993);stroke-width:2;stroke-miterlimit:4;stroke-dasharray:none;stroke-opacity:1;marker:none;enable-background:accumulate"
     d="m 325.09646,237 c -2.80769,0 -3.10979,0.28839 -3.09603,3.10176 V 244 v 3.89824 c -0.0138,2.81337 0.28834,3.10176 3.09603,3.10176 h 5.8075 C 333.71166,251 334,250.71165 334,247.89824 V 244 240.10176 C 334,237.28836 333.71165,237 330.90396,237 Z"
     id="path937"
     inkscape:connector-curvature="0"
     sodipodi:nodetypes="scccssscsss"
     clip-path="url(#clipPath983)" />
</svg>

<svg height="16" viewBox="0 0 4.233125 4.233125" width="16" xmlns="http://www.w3.org/2000/svg" xmlns:xlink="http://www.w3.org/1999/xlink"><linearGradient id="a" gradientUnits="userSpaceOnUse" x1="328" x2="328" y1="237" y2="251"><stop offset="0" stop-color="#fff"/><stop offset=".125" stop-color="#fff" stop-opacity=".098039"/><stop offset=".92500001" stop-color="#fff" stop-opacity=".098039"/><stop offset="1" stop-color="#fff" stop-opacity=".498039"/></linearGradient><clipPath id="b"><path d="m325.09646 237c-2.80769 0-3.10979.28839-3.09603 3.10176v3.89824 3.89824c-.0138 2.81337.28834 3.10176 3.09603 3.10176h5.8075c2.8077 0 3.09604-.28835 3.09604-3.10176v-3.89824-3.89824c0-2.8134-.28835-3.10176-3.09604-3.10176z"/></clipPath><linearGradient id="c" gradientTransform="matrix(.02480347 0 0 .03307129 -4.497562 -2.116563)" gradientUnits="userSpaceOnUse" x1="256" x2="256" y1="24.000002" y2="664"><stop offset="0" stop-color="#f1e2a7"/><stop offset="1" stop-color="#f9f1d2"/></linearGradient><linearGradient id="d" gradientTransform="matrix(0 -.00953618 -.00953591 0 5.176271 4.473642)" gradientUnits="userSpaceOnUse" x1="459.03448" x2="35.310345" y1="419.23337" y2="207.36522"><stop offset="0" stop-color="#ea9d60"/><stop offset="1" stop-color="#efbe94"/></linearGradient><path d="m2.8849678.132284c.187972 0 .336914.0041.463514.02532.1266.02125.237243.06278.319344.144688.0821.08191.123623.192104.144689.318828.02106.126722.02468.276085.02376.464549v1.030893 1.031411c.000793.188165-.0027.337449-.02376.46403-.02106.126724-.06258.23692-.144689.318828-.0821.08191-.192742.123436-.319344.144689-.126602.02125-.275542.02532-.463514.02532h-1.536783c-.187972 0-.336629-.004-.46299796-.02532-.126367-.02127-.237013-.06274-.318829-.144689-.08181-.08195-.122943-.192292-.144169-.318828-.02122-.126533-.02532-.275685-.02532-.46403v-1.031411-1.031412c0-.188345.0041-.337496.02532-.46403.02122-.126536.06236-.236877.144169-.318828.08182-.08195.192462-.123422.318829-.144688.12636896-.02127.27502596-.02532.46299796-.02532z" fill="url(#d)"/><path d="m1.8521248.264569h.529141v3.703985h-.529141z" fill="url(#c)" opacity=".6"/><path d="m2.3812658 2.645702v.132285h1.322851v-.132285zm0 .529141v.132285h.793711v-.132285z" fill="#e2965b"/><path d="m.52927384 2.645702h1.05828096v.793711h-1.05828096z" fill="#f9f9f9"/><path d="m.66155884 2.910273v.26457h.132285v-.26457zm.26457 0v.26457h.13228496v-.26457zm.26456996 0v.26457h.264571v-.26457z" fill="#5d5d5d"/><path d="m2.1166948.264569v3.703985h.768392c.742834 0 .81903-.07624.81903-.820581v-1.031411-1.031412c0-.744342-.0762-.820581-.81903-.820581z" fill="#fff" opacity=".08"/><g fill="none"><path d="m1.3483038.132284c-.187972 0-.336914.0041-.46351396.02532-.1266.02125-.237243.06278-.319344.144688-.0821.08191-.123623.192104-.144689.318828-.02106.126722-.02468.276085-.02376.464549v1.030893 1.031411c-.000794.188165.0027.337449.02376.46403.02106.126724.06258.23692.144689.318828.0821.08191.192742.123436.319344.144689.12660196.02125.27554196.02532.46351396.02532h1.536783c.187972 0 .336629-.004.462998-.02532.126367-.02127.237013-.06274.318829-.144689.08181-.08195.122943-.192292.144169-.318828.02122-.126533.02532-.275685.02532-.46403v-1.031411-1.031412c0-.188345-.0041-.337496-.02532-.46403-.02122-.126536-.06236-.236877-.14417-.318828-.08182-.08195-.192462-.123422-.318829-.144688-.126369-.02127-.275026-.02532-.462998-.02532z" opacity=".3" stroke="#000" stroke-width=".26457"/><path clip-path="url(#b)" d="m325.09646 237c-2.80769 0-3.10979.28839-3.09603 3.10176v3.89824 3.89824c-.0138 2.81337.28834 3.10176 3.09603 3.10176h5.8075c2.8077 0 3.09604-.28835 3.09604-3.10176v-3.89824-3.89824c0-2.8134-.28835-3.10176-3.09604-3.10176z" opacity=".4" stroke="url(#a)" stroke-width="2" transform="matrix(.26457031 0 0 .26457031 -84.662367 -62.438595)"/></g></svg>
